X: 70
T:Green Mountain Petronella
% Nottingham Music Database
S:via PR
M:4/4
L:1/4
K:G
G/2E/2|"G"DG G/2F/2G/2E/2|DB B/2G/2A/2B/2|"Am"c/2B/2c/2B/2 "D7"A/2B/2c/2d/2|\
"G"ed "D"d/2^c/2d/2B/2|
"G"DG G/2F/2G/2E/2|"G"DB "Em"B/2G/2A/2B/2|"Am"c/2B/2c/2A/2 "D7"D/2E/2F/2G/2|\
"D7"AG/2F/2 "G"G::
B/2d/2|"G"gg "D"ff|"A"e/2g/2e/2^c/2 "D"d/2c/2d/2f/2|\
"C"e/2d/2e/2f/2 "G"g/2f/2g/2e/2|"D7"c/2B/2A/2F/2 D/2G/2B/2d/2|
"G"gg "D"ff|"A"e/2g/2e/2^c/2 "D"d/2c/2d/2f/2|"C"e/2d/2e/2f/2 "G"g/2f/2g/2e/2|\
"D"c/2B/2A/2F/2 "G"G:|<end>
<start>
